src/app/assets/images/migration-notification-header-light.svg

<svg width="217" height="96" viewBox="0 0 217 96" fill="none" xmlns="http://www.w3.org/2000/svg">
	<path
		d="M104.039 6.68575C106.752 5.11928 110.095 5.11928 112.808 6.68576L142.011 23.5459C144.724 25.1124 146.395 28.0073 146.395 31.1403V64.8606C146.395 67.9936 144.724 70.8885 142.011 72.455L112.808 89.3151C110.095 90.8816 106.752 90.8816 104.039 89.3151L74.836 72.455C72.1228 70.8885 70.4514 67.9935 70.4514 64.8606V31.1403C70.4514 28.0073 72.1228 25.1124 74.836 23.5459L104.039 6.68575Z"
		fill="#F5F5FF" stroke="#5452CE" stroke-width="1.02849" />
	<path fill-rule="evenodd" clip-rule="evenodd"
		d="M108.477 38.6937L83.5762 64.8972L108.477 24.6152L133.196 64.8972L108.477 38.6937ZM97.2574 56.4873L101.237 52.2824H115.647L119.627 56.4873H97.2574ZM104.071 49.3559L108.473 44.8463L112.813 49.3559H104.071Z"
		fill="#D6D5FF" />
	<path
		d="M108.477 38.6937L109.008 38.1922C108.87 38.0462 108.679 37.9633 108.478 37.9629C108.277 37.9626 108.085 38.0448 107.947 38.1903L108.477 38.6937ZM83.5762 64.8972L82.9546 64.513C82.7577 64.8315 82.8334 65.2473 83.13 65.476C83.4265 65.7046 83.848 65.6721 84.1059 65.4006L83.5762 64.8972ZM108.477 24.6152L109.099 24.233C108.967 24.0168 108.732 23.8849 108.478 23.8845C108.224 23.8841 107.988 24.0152 107.855 24.231L108.477 24.6152ZM133.196 64.8972L132.664 65.3987C132.921 65.6711 133.343 65.7051 133.64 65.4775C133.937 65.2498 134.015 64.8342 133.819 64.515L133.196 64.8972ZM97.2574 56.4873L96.7266 55.985C96.526 56.197 96.4708 56.5081 96.5862 56.7762C96.7016 57.0443 96.9655 57.218 97.2574 57.218V56.4873ZM101.237 52.2824V51.5516C101.036 51.5516 100.844 51.6343 100.706 51.7801L101.237 52.2824ZM115.647 52.2824L116.178 51.7801C116.04 51.6343 115.848 51.5516 115.647 51.5516V52.2824ZM119.627 56.4873V57.218C119.918 57.218 120.182 57.0443 120.298 56.7762C120.413 56.5081 120.358 56.197 120.157 55.985L119.627 56.4873ZM104.071 49.3559L103.548 48.8455C103.342 49.0558 103.283 49.3687 103.397 49.6396C103.511 49.9105 103.777 50.0867 104.071 50.0867V49.3559ZM108.473 44.8463L108.999 44.3395C108.862 44.197 108.673 44.1162 108.475 44.1155C108.277 44.1148 108.088 44.1943 107.95 44.3358L108.473 44.8463ZM112.813 49.3559V50.0867C113.106 50.0867 113.371 49.9116 113.486 49.642C113.601 49.3723 113.543 49.0602 113.34 48.8491L112.813 49.3559ZM107.947 38.1903L83.0464 64.3938L84.1059 65.4006L109.006 39.1971L107.947 38.1903ZM84.1978 65.2815L109.098 24.9995L107.855 24.231L82.9546 64.513L84.1978 65.2815ZM107.854 24.9974L132.573 65.2794L133.819 64.515L109.099 24.233L107.854 24.9974ZM133.727 64.3958L109.008 38.1922L107.945 39.1952L132.664 65.3987L133.727 64.3958ZM97.7882 56.9896L101.768 52.7847L100.706 51.7801L96.7266 55.985L97.7882 56.9896ZM101.237 53.0132H115.647V51.5516H101.237V53.0132ZM115.116 52.7847L119.096 56.9896L120.157 55.985L116.178 51.7801L115.116 52.7847ZM119.627 55.7565H97.2574V57.218H119.627V55.7565ZM104.593 49.8664L108.995 45.3567L107.95 44.3358L103.548 48.8455L104.593 49.8664ZM107.946 45.353L112.287 49.8627L113.34 48.8491L108.999 44.3395L107.946 45.353ZM112.813 48.6251H104.071V50.0867H112.813V48.6251Z"
		fill="#5452CE" />
	<path
		d="M103.307 3.45337C106.473 1.62582 110.373 1.62582 113.538 3.45337L144.444 21.2966C147.609 23.1242 149.559 26.5016 149.559 30.1567V65.8433C149.559 69.4984 147.609 72.8758 144.444 74.7034L113.538 92.5466C110.373 94.3742 106.473 94.3742 103.307 92.5466L72.402 74.7034C69.2366 72.8758 67.2866 69.4984 67.2866 65.8433V30.1567C67.2866 26.5016 69.2366 23.1242 72.402 21.2966L103.307 3.45337Z"
		stroke="#D6D5FF" stroke-width="1.02849" />
	<path
		d="M105.5 9.49526C107.309 8.45094 109.537 8.45094 111.346 9.49526L140.307 26.2161C142.116 27.2604 143.23 29.1904 143.23 31.279V64.7208C143.23 66.8094 142.116 68.7394 140.307 69.7837L111.346 86.5046C109.537 87.5489 107.309 87.5489 105.5 86.5046L76.5383 69.7837C74.7295 68.7394 73.6152 66.8094 73.6152 64.7208V31.2791C73.6152 29.1904 74.7295 27.2604 76.5383 26.2161L105.5 9.49526Z"
		stroke="#D6D5FF" stroke-width="1.02849" />
	<path
		d="M155.923 81.5001C156.083 76.7991 159.641 67.0904 172.593 65.8641M162.815 61.1119C164.471 58.3526 166.245 51.6996 160.09 47.1621"
		stroke="#5452CE" stroke-width="1.46154" stroke-linecap="round" />
	<path
		d="M207.695 5.61523C221.967 17.5722 216.672 33.5285 198.236 24.9304C179.8 16.3323 193.751 6.84159 208.017 24.7771M210.581 29.3759C212.665 35.3544 207.055 45.3186 191.346 39.4934C175.638 33.6682 186.698 18.3387 202.567 39.0335M204.49 43.1724C207.695 50.3773 204.009 59.1151 186.698 54.363C169.387 49.6108 179.806 31.2155 195.995 52.9833M198.72 57.4289C200.376 62.4876 199.553 71.9305 183.011 69.2326"
		stroke="#5452CE" stroke-width="1.46154" stroke-linecap="round" />
	<ellipse rx="2.24405" ry="2.14613" transform="matrix(-1 0 0 1 186.54 79.2008)" stroke="#6E6CEF"
		stroke-width="1.46154" />
	<ellipse rx="2.24405" ry="2.14613" transform="matrix(-1 0 0 1 171.254 49.9703)" stroke="#6E6CEF"
		stroke-width="1.46154" />
	<ellipse rx="1.91028" ry="1.82692" transform="matrix(-1 0 0 1 181.523 88.5574)" stroke="#6E6CEF"
		stroke-width="1.46154" />
	<ellipse rx="1.91028" ry="1.82692" transform="matrix(-1 0 0 1 209.028 62.9802)" stroke="#DE5846"
		stroke-width="1.46154" />
	<ellipse rx="3.05645" ry="2.92308" transform="matrix(-1 0 0 1 168.147 81.6155)" stroke="#DE5846"
		stroke-width="1.46154" />
	<path
		d="M60.9226 81.5001C60.7622 76.7991 57.2035 67.0904 44.251 65.8641M54.0295 61.1119C52.373 58.3526 50.599 51.6996 56.7547 47.1621"
		stroke="#DE5846" stroke-width="1.46154" stroke-linecap="round" />
	<path
		d="M9.15187 5.61523C-5.12167 17.5722 0.174029 33.5285 18.6116 24.9304C37.0492 16.3323 23.0969 6.84159 8.82983 24.7771M6.26497 29.3759C4.18103 35.3544 9.79165 45.3186 25.5014 39.4934C41.2112 33.6682 30.1502 18.3387 14.2802 39.0335M12.3565 43.1724C9.15187 50.3773 12.8374 59.1151 30.1502 54.363C47.463 49.6108 37.0433 31.2155 20.8526 52.9833M18.1274 57.4289C16.471 62.4876 17.2939 71.9305 33.8372 69.2326"
		stroke="#DE5846" stroke-width="1.46154" stroke-linecap="round" />
	<ellipse cx="30.3146" cy="79.2008" rx="2.24425" ry="2.14613" stroke="#FEB8AE" stroke-width="1.46154" />
	<ellipse cx="45.5987" cy="49.9703" rx="2.24425" ry="2.14613" stroke="#FEB8AE" stroke-width="1.46154" />
	<ellipse cx="35.3284" cy="88.5574" rx="1.91045" ry="1.82692" stroke="#FEB8AE" stroke-width="1.46154" />
	<ellipse cx="7.81866" cy="62.9802" rx="1.91045" ry="1.82692" stroke="#5452CE" stroke-width="1.46154" />
	<ellipse cx="48.7061" cy="81.6155" rx="3.05672" ry="2.92308" stroke="#5452CE" stroke-width="1.46154" />
</svg>

<svg width="217" height="96" viewBox="0 0 217 96" fill="none" xmlns="http://www.w3.org/2000/svg"><path d="M104.039 6.686a8.769 8.769 0 0 1 8.769 0l29.203 16.86a8.77 8.77 0 0 1 4.384 7.594v33.72a8.77 8.77 0 0 1-4.384 7.595l-29.203 16.86a8.769 8.769 0 0 1-8.769 0l-29.203-16.86a8.77 8.77 0 0 1-4.385-7.594V31.14a8.77 8.77 0 0 1 4.385-7.595l29.203-16.86z" fill="#F5F5FF" stroke="#5452CE" stroke-width="1.028"/><path fill-rule="evenodd" clip-rule="evenodd" d="M108.477 38.694l-24.9 26.203 24.9-40.282 24.719 40.282-24.719-26.203zm-11.22 17.793l3.98-4.205h14.41l3.98 4.205h-22.37zm6.814-7.131l4.402-4.51 4.34 4.51h-8.742z" fill="#D6D5FF"/><path d="M108.477 38.694l.531-.502a.73.73 0 0 0-1.061-.002l.53.504zm-24.9 26.203l-.622-.384a.73.73 0 0 0 1.15.888l-.529-.504zm24.9-40.282l.622-.382a.728.728 0 0 0-1.244-.002l.622.384zm24.719 40.282l-.532.502a.731.731 0 0 0 1.155-.884l-.623.382zm-35.939-8.41l-.53-.502a.73.73 0 0 0 .53 1.233v-.73zm3.98-4.205v-.73a.731.731 0 0 0-.531.228l.531.502zm14.41 0l.531-.502a.731.731 0 0 0-.531-.228v.73zm3.98 4.205v.731a.732.732 0 0 0 .53-1.233l-.53.502zm-15.556-7.131l-.523-.51a.73.73 0 0 0 .523 1.24v-.73zm4.402-4.51l.526-.506a.73.73 0 0 0-1.049-.004l.523.51zm4.34 4.51v.73a.732.732 0 0 0 .527-1.237l-.527.507zm-4.866-11.166l-24.9 26.204 1.059 1.007 24.9-26.204-1.059-1.007zm-23.75 27.091L109.099 25l-1.243-.768-24.9 40.282 1.243.768zm23.657-40.284l24.719 40.282 1.246-.764-24.72-40.282-1.245.764zm25.873 39.399l-24.719-26.204-1.063 1.003L132.664 65.4l1.063-1.003zM97.788 56.99l3.98-4.205-1.062-1.005-3.98 4.205 1.062 1.005zm3.449-3.977h14.41v-1.461h-14.41v1.461zm13.879-.228l3.98 4.205 1.061-1.005-3.979-4.205-1.062 1.005zm4.511 2.972h-22.37v1.461h22.37v-1.462zm-15.034-5.89l4.402-4.51-1.045-1.021-4.402 4.51 1.045 1.02zm3.353-4.514l4.341 4.51 1.053-1.014-4.341-4.51-1.053 1.014zm4.867 3.272h-8.742v1.462h8.742v-1.462z" fill="#5452CE"/><path d="M103.307 3.453a10.231 10.231 0 0 1 10.231 0l30.906 17.844a10.231 10.231 0 0 1 5.115 8.86v35.686c0 3.655-1.95 7.033-5.115 8.86l-30.906 17.844a10.231 10.231 0 0 1-10.231 0L72.402 74.703a10.23 10.23 0 0 1-5.115-8.86V30.157a10.23 10.23 0 0 1 5.115-8.86l30.905-17.844z" stroke="#D6D5FF" stroke-width="1.028"/><path d="M105.5 9.495a5.846 5.846 0 0 1 5.846 0l28.961 16.721a5.846 5.846 0 0 1 2.923 5.063v33.442a5.846 5.846 0 0 1-2.923 5.063l-28.961 16.72a5.846 5.846 0 0 1-5.846 0l-28.962-16.72a5.846 5.846 0 0 1-2.923-5.063V31.279a5.846 5.846 0 0 1 2.923-5.063L105.5 9.496z" stroke="#D6D5FF" stroke-width="1.028"/><path d="M155.923 81.5c.16-4.7 3.718-14.41 16.67-15.636m-9.778-4.752c1.656-2.76 3.43-9.412-2.725-13.95M207.695 5.615c14.272 11.957 8.977 27.913-9.459 19.315-18.436-8.598-4.485-18.088 9.781-.153m2.564 4.599c2.084 5.978-3.526 15.943-19.235 10.117-15.708-5.825-4.648-21.154 11.221-.46m1.923 4.14c3.205 7.204-.481 15.942-17.792 11.19-17.311-4.752-6.892-23.148 9.297-1.38m2.725 4.446c1.656 5.059.833 14.501-15.709 11.804" stroke="#5452CE" stroke-width="1.462" stroke-linecap="round"/><ellipse rx="2.244" ry="2.146" transform="matrix(-1 0 0 1 186.54 79.2)" stroke="#6E6CEF" stroke-width="1.462"/><ellipse rx="2.244" ry="2.146" transform="matrix(-1 0 0 1 171.254 49.97)" stroke="#6E6CEF" stroke-width="1.462"/><ellipse rx="1.91" ry="1.827" transform="matrix(-1 0 0 1 181.523 88.557)" stroke="#6E6CEF" stroke-width="1.462"/><ellipse rx="1.91" ry="1.827" transform="matrix(-1 0 0 1 209.028 62.98)" stroke="#DE5846" stroke-width="1.462"/><ellipse rx="3.056" ry="2.923" transform="matrix(-1 0 0 1 168.147 81.615)" stroke="#DE5846" stroke-width="1.462"/><path d="M60.923 81.5c-.16-4.7-3.72-14.41-16.672-15.636m9.779-4.752c-1.657-2.76-3.431-9.412 2.725-13.95M9.152 5.615C-5.122 17.572.174 33.528 18.612 24.93c18.437-8.598 4.485-18.088-9.782-.153m-2.565 4.599c-2.084 5.978 3.527 15.943 19.236 10.117 15.71-5.825 4.65-21.154-11.22-.46m-1.925 4.14c-3.204 7.204.481 15.942 17.794 11.19 17.313-4.752 6.893-23.148-9.297-1.38m-2.726 4.446c-1.656 5.059-.833 14.501 15.71 11.804" stroke="#DE5846" stroke-width="1.462" stroke-linecap="round"/><ellipse cx="30.315" cy="79.201" rx="2.244" ry="2.146" stroke="#FEB8AE" stroke-width="1.462"/><ellipse cx="45.599" cy="49.97" rx="2.244" ry="2.146" stroke="#FEB8AE" stroke-width="1.462"/><ellipse cx="35.328" cy="88.557" rx="1.91" ry="1.827" stroke="#FEB8AE" stroke-width="1.462"/><ellipse cx="7.819" cy="62.98" rx="1.91" ry="1.827" stroke="#5452CE" stroke-width="1.462"/><ellipse cx="48.706" cy="81.615" rx="3.057" ry="2.923" stroke="#5452CE" stroke-width="1.462"/></svg>
